X:5
T:La demoiselle de Montréal (pour Perrine)
C:Bruno Scherrer
M:3/4
K:Dmaj
L:1/8
V:1
"^A""Em7"z.G2.B2.d|"A7"(c2A2G{_A}=A-|"DΔ"A6)|z6|
"Em7"z.G2.B2.d|"A7"(c2d2e2|"DΔ"{=c}[A^cf]6)|z6|
"F#∅"z.B2.=c2.^d|"B7"(f2g2a2|"Em7"(4:3:4a2g2f2g2|"Gm"[dg_b]4)ag|
%%score (1 2)
V:1
x6 | x6 | (a4g2) | x6 | x6 | =fed x3 | 
V:2
"^B""D"[Adf]6 | "Bb6"[_Bdg]6 | "C6"[=ce]6 | "D"[Adf]6 |"Bb6"[_Bd]6 | "C6"[=c]6 | 
%%score (1)
V:1
"^C""Gm7"z._B2.=f2.d|"C7"(e2d2=c{_e}=e-|"FΔ"e6|"BbΔ"d6)|
"E∅"z.G2._B2.d|"A7"(c2A2G=F-|"Dm7"=F6|"D7"F6)|
"Gm7"z(GA_B=cd|"C7"e2=f2g2|"FΔ"{_e}=e4-ed/2=c/2|"BbΔ"d6)|
"E∅"z.d2.G2._B|d6|"A7"z.e2.G2.A|(e2dcBA)|
"^A'""Em7"z.G2.B2.d|"A7"(c2A2G{_A}=A-|"DΔ"A6)|z6|
"Em7"z.G2.B2.d|"A7"(c2d2e2|"DΔ"{=c}[A^cf]6)|z6|
"F#∅"z.B2.=c2.^d|"B7"(f2g2a2|"Em7"{_a}=a6|g6) | 
"E∅"(g3_B3 |"Eb7"A3f3|"DΔ"{=c}^c6)|z2(BcBA|
"E∅"g3_B3 | "Eb7"A3f3)|"DΔ".[cfa].[cfa]2.[cfa]2.[cfa]|.[cfa]2z4||
%%begintext
Thème
Solos
Reprise du thème avec répétition longue de la partie B (6 mesures*X), solo de guitare + solo de batterie + fin
%%endtext

